; generated by PrusaSlicer 2.3.0+win64 on 2021-03-23 at 20:29:23 UTC


;
;

;
;
; 

; external perimeters extrusion width = 0.40mm
; perimeters extrusion width = 0.40mm
; infill extrusion width = 0.45mm
; solid infill extrusion width = 0.45mm
; top infill extrusion width = 0.40mm
; first layer extrusion width = 0.42mm

M73 P0 R52
M201 X1250 Y1250 Z400 E5000 ; sets maximum accelerations, mm/sec^2
M203 X180 Y180 Z12 E80 ; sets maximum feedrates, mm/sec
M204 P1250 R1250 T1250 ; sets acceleration (P, T) and retract acceleration (R), mm/sec^2
M205 X8.00 Y8.00 Z2.00 E10.00 ; sets the jerk limits, mm/sec
M205 S0 T0 ; sets the minimum extruding and travel feed rate, mm/sec
M107
;TYPE:Custom
G90 ; use absolute coordinates
M83 ; extruder relative mode
M104 S170 ; set extruder temp for bed leveling
M140 S60 ; set bed temp
M109 R170 ; wait for bed leveling temp
M190 S60 ; wait for bed temp
G28 ; home all without mesh bed level
G29 ; mesh bed leveling 
M104 S215 ; set extruder temp
G92 E0.0
G1 Y-2.0 X179 F2400
G1 Z3 F720
M109 S215 ; wait for extruder temp

; intro line
G1 X170 F1000
G1 Z0.2 F720
G1 X110.0 E8.0 F900
G1 X40.0 E10.0 F700
G92 E0.0

M221 S95 ; set flow
G21 ; set units to millimeters
G90 ; use absolute coordinates
M83 ; use relative distances for extrusion
M900 K0.2 ; Filament gcode LA 1.5
; ; Filament gcode LA 1.0
;LAYER_CHANGE
;Z:0.2
;HEIGHT:0.2
;BEFORE_LAYER_CHANGE
G92 E0.0
;0.2


G1 Z0.200 F9000.000
;AFTER_LAYER_CHANGE
;0.2
G1 E-3.20000 F4200.000
G1 Z0.400 F9000.000
G1 X68.943 Y87.054
G1 Z0.200
G1 E3.20000 F2400.000
M204 S800
;TYPE:Skirt
;WIDTH:0.42
G1 F1200.000
G1 X69.229 Y86.520 E0.01899
G1 X69.625 Y86.061 E0.01899
G1 X73.806 Y82.529 E0.17162
G1 X81.887 Y76.467 E0.31674
G1 X86.515 Y73.350 E0.17497
G1 X87.110 Y73.077 E0.02052
G1 X87.749 Y72.953 E0.02039
G1 X92.052 Y72.946 E0.13491
G1 X92.902 Y73.082 E0.02701
G1 X93.669 Y73.474 E0.02701
G1 X106.177 Y82.785 E0.48890
G1 X110.262 Y86.083 E0.16462
G1 X110.717 Y86.565 E0.02078
G1 X111.104 Y87.303 E0.02612
G1 X111.253 Y88.123 E0.02612
G1 X111.254 Y97.749 E0.30182
G1 X111.057 Y98.724 E0.03119
G1 X110.711 Y99.342 E0.02218
G1 X110.220 Y99.851 E0.02218
G1 X101.730 Y106.503 E0.33819
G1 X101.260 Y106.787 E0.01720
G1 X100.744 Y106.972 E0.01720
G1 X100.087 Y107.054 E0.02078
G1 X79.484 Y107.054 E0.64599
G1 X78.476 Y106.857 E0.03221
G1 X77.771 Y106.444 E0.02562
G1 X69.725 Y99.806 E0.32703
G1 X69.325 Y99.390 E0.01809
G1 X69.019 Y98.896 E0.01822
G1 X68.817 Y98.321 E0.01912
G1 X68.746 Y97.716 E0.01912
G1 X68.746 Y88.029 E0.30372
G1 X68.932 Y87.113 E0.02931
M204 S1250
G1 X69.296 Y87.187 F9000.000
M204 S800
G1 F1200.000
G1 X69.546 Y86.725 E0.01646
G1 X69.890 Y86.329 E0.01645
G1 X74.043 Y82.822 E0.17044
G1 X82.107 Y76.773 E0.31606
G1 X86.715 Y73.669 E0.17421
G1 X87.234 Y73.433 E0.01787
G1 X87.798 Y73.328 E0.01799
G1 X92.051 Y73.323 E0.13335
G1 X92.789 Y73.442 E0.02343
G1 X93.454 Y73.783 E0.02343
G1 X105.947 Y83.083 E0.48833
G1 X110.017 Y86.370 E0.16404
G1 X110.411 Y86.787 E0.01799
G1 X110.748 Y87.428 E0.02272
G1 X110.876 Y88.142 E0.02272
G1 X110.877 Y97.738 E0.30089
G1 X110.703 Y98.592 E0.02731
G1 X110.405 Y99.121 E0.01906
G1 X109.983 Y99.558 E0.01906
G1 X101.509 Y106.197 E0.33750
G1 X100.645 Y106.608 E0.03001
G1 X100.083 Y106.677 E0.01775
G1 X79.489 Y106.677 E0.64573
G1 X78.608 Y106.503 E0.02813
G1 X78.006 Y106.149 E0.02190
G1 X69.970 Y99.519 E0.32667
G1 X69.622 Y99.157 E0.01574
G1 X69.358 Y98.730 E0.01574
G1 X69.184 Y98.235 E0.01645
G1 X69.123 Y97.714 E0.01645
G1 X69.123 Y88.040 E0.30333
G1 X69.285 Y87.245 E0.02542
M204 S1250
; printing object heart.stl id:0 copy 0
G1 E-2.24000 F4200.000
;WIPE_START
G1 F7200.000
G1 X69.546 Y86.725 E-0.32283
G1 X69.890 Y86.329 E-0.29070
G1 X70.302 Y85.982 E-0.29847
;WIPE_END
G1 E-0.04800 F4200.000
G1 Z0.400 F9000.000
G1 X78.336 Y93.536
G1 Z0.200
G1 E3.20000 F2400.000
M204 S800
;TYPE:Perimeter
G1 F1200.000
G1 X84.664 Y93.536 E0.19842
G1 X84.664 Y98.864 E0.16707
G1 X78.336 Y98.864 E0.19842
G1 X78.336 Y93.596 E0.16518
M204 S1250
G1 X78.713 Y93.913 F9000.000
M204 S800
G1 F1200.000
G1 X84.287 Y93.913 E0.17477
G1 X84.287 Y98.487 E0.14342
G1 X78.713 Y98.487 E0.17477
G1 X78.713 Y93.973 E0.14154
M204 S1250
M73 P1 R52
G1 X79.090 Y94.290 F9000.000
M204 S800
;TYPE:External perimeter
G1 F1200.000
G1 X83.910 Y94.290 E0.15113
G1 X83.910 Y98.110 E0.11977
G1 X79.090 Y98.110 E0.15113
G1 X79.090 Y94.350 E0.11789
M204 S1250
G1 X78.972 Y93.908 F9000.000
G1 E-2.24000 F4200.000
;WIPE_START
G1 F7200.000
G1 X80.736 Y94.329 E-0.91200
;WIPE_END
G1 E-0.04800 F4200.000
G1 Z0.400 F9000.000
G1 X76.664 Y96.536
G1 Z0.200
G1 E3.20000 F2400.000
M204 S800
;TYPE:Perimeter
G1 F1200.000
G1 X72.664 Y96.536 E0.12542
G1 X72.664 Y89.242 E0.22868
G1 X76.664 Y89.242 E0.12542
G1 X76.664 Y85.864 E0.10592
G1 X80.664 Y85.864 E0.12542
G1 X80.664 Y82.864 E0.09406
G1 X84.664 Y82.864 E0.12542
G1 X84.664 Y79.864 E0.09406
G1 X89.115 Y79.864 E0.13956
G1 X89.115 Y76.864 E0.09406
G1 X90.883 Y76.864 E0.05544
G1 X90.883 Y79.864 E0.09406
G1 X94.898 Y79.864 E0.12587
G1 X94.898 Y82.864 E0.09406
G1 X98.836 Y82.864 E0.12347
G1 X98.836 Y86.134 E0.10251
G1 X103.336 Y86.134 E0.14109
G1 X103.336 Y89.364 E0.10129
G1 X107.336 Y89.364 E0.12542
G1 X107.336 Y96.536 E0.22486
G1 X103.050 Y96.536 E0.13439
G1 X103.050 Y99.536 E0.09406
G1 X98.912 Y99.536 E0.12973
G1 X98.912 Y103.136 E0.11288
G1 X92.664 Y103.136 E0.19591
G1 X92.664 Y100.227 E0.09119
G1 X86.336 Y100.227 E0.19842
G1 X86.336 Y103.136 E0.09119
G1 X80.664 Y103.136 E0.17783
G1 X80.664 Y99.536 E0.11288
G1 X76.664 Y99.536 E0.12542
G1 X76.664 Y96.596 E0.09218
M204 S1250
G1 X76.287 Y96.913 F9000.000
M204 S800
G1 F1200.000
G1 X72.287 Y96.913 E0.12542
G1 X72.287 Y88.865 E0.25233
G1 X76.287 Y88.865 E0.12542
G1 X76.287 Y85.487 E0.10592
G1 X80.287 Y85.487 E0.12542
G1 X80.287 Y82.487 E0.09406
G1 X84.287 Y82.487 E0.12542
G1 X84.287 Y79.487 E0.09406
G1 X88.738 Y79.487 E0.13956
G1 X88.738 Y76.487 E0.09406
G1 X91.260 Y76.487 E0.07908
G1 X91.260 Y79.487 E0.09406
G1 X95.275 Y79.487 E0.12587
G1 X95.275 Y82.487 E0.09406
G1 X99.213 Y82.487 E0.12347
G1 X99.213 Y85.756 E0.10251
G1 X103.713 Y85.756 E0.14109
G1 X103.713 Y88.987 E0.10129
G1 X107.713 Y88.987 E0.12542
G1 X107.713 Y96.913 E0.24851
G1 X103.427 Y96.913 E0.13439
G1 X103.427 Y99.913 E0.09406
G1 X99.289 Y99.913 E0.12973
G1 X99.289 Y103.513 E0.11288
G1 X92.287 Y103.513 E0.21955
G1 X92.287 Y100.604 E0.09119
G1 X86.713 Y100.604 E0.17477
G1 X86.713 Y103.513 E0.09119
G1 X80.287 Y103.513 E0.20148
G1 X80.287 Y99.913 E0.11288
G1 X76.287 Y99.913 E0.12542
G1 X76.287 Y96.973 E0.09218
M204 S1250
G1 X75.910 Y97.290 F9000.000
M204 S800
;TYPE:External perimeter
G1 F1200.000
G1 X71.910 Y97.290 E0.12542
G1 X71.910 Y88.488 E0.27597
G1 X75.910 Y88.488 E0.12542
G1 X75.910 Y85.110 E0.10592
G1 X79.910 Y85.110 E0.12542
G1 X79.910 Y82.110 E0.09406
G1 X83.910 Y82.110 E0.12542
G1 X83.910 Y79.110 E0.09406
G1 X88.361 Y79.110 E0.13956
G1 X88.361 Y76.110 E0.09406
G1 X91.637 Y76.110 E0.10273
G1 X91.637 Y79.110 E0.09406
G1 X95.652 Y79.110 E0.12587
G1 X95.652 Y82.110 E0.09406
G1 X99.590 Y82.110 E0.12347
G1 X99.590 Y85.379 E0.10251
G1 X104.090 Y85.379 E0.14109
G1 X104.090 Y88.610 E0.10129
G1 X108.090 Y88.610 E0.12542
G1 X108.090 Y97.290 E0.27216
G1 X103.804 Y97.290 E0.13439
G1 X103.804 Y100.290 E0.09406
G1 X99.666 Y100.290 E0.12973
G1 X99.666 Y103.890 E0.11288
G1 X91.910 Y103.890 E0.24320
G1 X91.910 Y100.982 E0.09119
G1 X87.090 Y100.982 E0.15113
G1 X87.090 Y103.890 E0.09119
G1 X79.910 Y103.890 E0.22512
G1 X79.910 Y100.290 E0.11288
G1 X75.910 Y100.290 E0.12542
G1 X75.910 Y97.350 E0.09218
M204 S1250
G1 X75.788 Y96.909 F9000.000
G1 E-2.24000 F4200.000
;WIPE_START
G1 F7200.000
G1 X74.264 Y97.325 E-0.91200
;WIPE_END
G1 E-0.04800 F4200.000
G1 Z0.400 F9000.000
G1 X78.147 Y99.200
G1 Z0.200
G1 E3.20000 F2400.000
M204 S800
;TYPE:Gap fill
;WIDTH:0.337526
G1 F1200.000
G1 X80.853 Y99.200 E0.06627
M204 S1250
G1 E-2.24000 F4200.000
;WIPE_START
G1 F7200.000
G1 X79.207 Y99.200 E-0.91200
;WIPE_END
G1 E-0.04800 F4200.000
G1 Z0.400 F9000.000
G1 X90.183 Y76.977
G1 Z0.200
G1 E3.20000 F2400.000
M204 S800
;TYPE:Solid infill
;WIDTH:0.423713
G1 F1200.000
G1 X90.601 Y77.395 E0.01870
G1 X90.601 Y77.933 E0.01705
G1 X89.814 Y77.147 E0.03522
G1 X89.398 Y77.147 E0.01317
G1 X89.398 Y77.269 E0.00388
G1 X90.601 Y78.472 E0.05385
G1 X90.601 Y79.010 E0.01705
G1 X89.398 Y77.808 E0.05385
G1 X89.398 Y78.346 E0.01705
G1 X90.770 Y79.719 E0.06144
M204 S1250
G1 E-2.24000 F4200.000
;WIPE_START
G1 F7200.000
G1 X89.607 Y78.555 E-0.91200
;WIPE_END
G1 E-0.04800 F4200.000
G1 Z0.400 F9000.000
G1 X94.260 Y79.977
G1 Z0.200
G1 E3.20000 F2400.000
M204 S800
G1 F1200.000
G1 X94.615 Y80.332 E0.01590
G1 X94.615 Y80.871 E0.01705
G1 X93.891 Y80.147 E0.03241
G1 X93.353 Y80.147 E0.01705
G1 X94.615 Y81.409 E0.05653
G1 X94.615 Y81.948 E0.01705
G1 X92.814 Y80.147 E0.08064
G1 X92.276 Y80.147 E0.01705
G1 X94.785 Y82.656 E0.11236
M204 S1250
G1 E-2.24000 F4200.000
;WIPE_START
G1 F7200.000
G1 X93.621 Y81.492 E-0.91200
;WIPE_END
G1 E-0.04800 F4200.000
G1 Z0.400 F9000.000
G1 X98.337 Y82.977
G1 Z0.200
G1 E3.20000 F2400.000
M204 S800
G1 F1200.000
G1 X98.553 Y83.193 E0.00967
G1 X98.553 Y83.732 E0.01705
G1 X97.968 Y83.147 E0.02619
G1 X97.430 Y83.147 E0.01705
G1 X98.553 Y84.270 E0.05030
G1 X98.553 Y84.809 E0.01705
G1 X96.891 Y83.147 E0.07442
G1 X96.353 Y83.147 E0.01705
G1 X98.723 Y85.517 E0.10613
M204 S1250
G1 E-2.24000 F4200.000
;WIPE_START
G1 F7200.000
G1 X97.559 Y84.353 E-0.91200
;WIPE_END
G1 E-0.04800 F4200.000
G1 Z0.400 F9000.000
G1 X102.683 Y86.247
G1 Z0.200
G1 E3.20000 F2400.000
M204 S800
G1 F1200.000
G1 X103.053 Y86.616 E0.01655
G1 X103.053 Y87.155 E0.01705
G1 X102.315 Y86.416 E0.03307
G1 X101.776 Y86.416 E0.01705
G1 X103.053 Y87.693 E0.05718
G1 X103.053 Y88.232 E0.01705
G1 X101.238 Y86.416 E0.08129
G1 X100.699 Y86.416 E0.01705
G1 X103.223 Y88.940 E0.11301
M204 S1250
G1 E-2.24000 F4200.000
;WIPE_START
G1 F7200.000
G1 X102.059 Y87.776 E-0.91200
;WIPE_END
G1 E-0.04800 F4200.000
G1 Z0.400 F9000.000
G1 X107.223 Y90.247
M73 P1 R51
G1 Z0.200
G1 E3.20000 F2400.000
M204 S800
G1 F1200.000
G1 X106.622 Y89.647 E0.02689
G1 X106.084 Y89.647 E0.01705
G1 X107.053 Y90.616 E0.04340
G1 X107.053 Y91.155 E0.01705
G1 X105.545 Y89.647 E0.06752
G1 X105.007 Y89.647 E0.01705
G1 X107.053 Y91.693 E0.09163
G1 X107.053 Y92.232 E0.01705
G1 X104.468 Y89.647 E0.11575
G1 X103.930 Y89.647 E0.01705
G1 X107.053 Y92.770 E0.13986
G1 X107.053 Y93.309 E0.01705
G1 X100.161 Y86.416 E0.30863
G1 X99.622 Y86.416 E0.01705
G1 X107.053 Y93.847 E0.33275
G1 X107.053 Y94.386 E0.01705
G1 X99.083 Y86.416 E0.35686
G1 X98.553 Y86.416 E0.01680
G1 X98.553 Y85.886 E0.01680
G1 X95.814 Y83.147 E0.12265
G1 X95.276 Y83.147 E0.01705
G1 X107.053 Y94.924 E0.52738
G1 X107.053 Y95.463 E0.01705
G1 X91.737 Y80.147 E0.68583
M73 P2 R51
G1 X91.199 Y80.147 E0.01705
G1 X107.053 Y96.001 E0.70994
G1 X107.053 Y96.253 E0.00797
G1 X106.766 Y96.253 E0.00909
G1 X89.398 Y78.885 E0.77771
G1 X89.398 Y79.423 E0.01705
G1 X106.228 Y96.253 E0.75360
G1 X105.689 Y96.253 E0.01705
G1 X89.398 Y79.962 E0.72949
G1 X89.398 Y80.147 E0.00586
G1 X89.044 Y80.147 E0.01120
G1 X105.151 Y96.253 E0.72120
G1 X104.612 Y96.253 E0.01705
G1 X88.506 Y80.147 E0.72120
G1 X87.967 Y80.147 E0.01705
G1 X104.073 Y96.253 E0.72120
G1 X103.535 Y96.253 E0.01705
G1 X87.429 Y80.147 E0.72120
G1 X86.890 Y80.147 E0.01705
G1 X102.996 Y96.253 E0.72120
G1 X102.767 Y96.253 E0.00727
G1 X102.767 Y96.562 E0.00978
G1 X86.352 Y80.147 E0.73504
G1 X85.813 Y80.147 E0.01705
G1 X102.767 Y97.101 E0.75915
G1 X102.767 Y97.639 E0.01705
G1 X85.275 Y80.147 E0.78327
G1 X84.947 Y80.147 E0.01038
G1 X84.947 Y80.358 E0.00667
G1 X102.767 Y98.178 E0.79795
G1 X102.767 Y98.716 E0.01705
G1 X84.947 Y80.896 E0.79795
G1 X84.947 Y81.435 E0.01705
G1 X102.765 Y99.253 E0.79788
G1 X102.227 Y99.253 E0.01705
G1 X84.947 Y81.973 E0.77376
G1 X84.947 Y82.512 E0.01705
G1 X101.688 Y99.253 E0.74965
G1 X101.150 Y99.253 E0.01705
G1 X84.947 Y83.050 E0.72553
G1 X84.947 Y83.147 E0.00306
G1 X84.505 Y83.147 E0.01399
G1 X100.611 Y99.253 E0.72120
G1 X100.073 Y99.253 E0.01705
G1 X83.967 Y83.147 E0.72120
G1 X83.428 Y83.147 E0.01705
G1 X99.534 Y99.253 E0.72120
G1 X98.996 Y99.253 E0.01705
G1 X82.890 Y83.147 E0.72120
G1 X82.351 Y83.147 E0.01705
G1 X98.630 Y99.425 E0.72892
G1 X98.630 Y99.964 E0.01705
G1 X81.812 Y83.147 E0.75304
G1 X81.274 Y83.147 E0.01705
G1 X98.630 Y100.502 E0.77715
G1 X98.630 Y101.041 E0.01705
G1 X80.947 Y83.358 E0.79180
M73 P3 R51
G1 X80.947 Y83.897 E0.01705
G1 X98.630 Y101.580 E0.79180
G1 X98.630 Y102.118 E0.01705
G1 X80.947 Y84.435 E0.79180
G1 X80.947 Y84.974 E0.01705
G1 X98.630 Y102.657 E0.79180
G1 X98.630 Y102.853 E0.00622
G1 X98.288 Y102.853 E0.01083
G1 X80.947 Y85.513 E0.77648
G1 X80.947 Y86.051 E0.01705
G1 X97.749 Y102.853 E0.75237
G1 X97.210 Y102.853 E0.01705
G1 X80.504 Y86.147 E0.74807
G1 X79.966 Y86.147 E0.01705
G1 X96.672 Y102.853 E0.74807
G1 X96.133 Y102.853 E0.01705
G1 X79.427 Y86.147 E0.74807
G1 X78.889 Y86.147 E0.01705
G1 X95.595 Y102.853 E0.74807
G1 X95.056 Y102.853 E0.01705
G1 X92.947 Y100.744 E0.09446
G1 X92.947 Y101.282 E0.01705
G1 X94.518 Y102.853 E0.07034
G1 X93.979 Y102.853 E0.01705
G1 X92.947 Y101.821 E0.04623
G1 X92.947 Y102.359 E0.01705
G1 X93.610 Y103.023 E0.02971
M204 S1250
G1 E-2.24000 F4200.000
;WIPE_START
G1 F7200.000
G1 X92.947 Y102.359 E-0.52002
G1 X92.947 Y101.821 E-0.29843
G1 X93.066 Y101.940 E-0.09355
;WIPE_END
G1 E-0.04800 F4200.000
G1 Z0.400 F9000.000
G1 X92.318 Y100.114
G1 Z0.200
G1 E3.20000 F2400.000
M204 S800
G1 F1200.000
G1 X78.350 Y86.147 E0.62544
G1 X77.812 Y86.147 E0.01705
G1 X91.609 Y99.945 E0.61784
G1 X91.071 Y99.945 E0.01705
G1 X84.947 Y93.821 E0.27422
G1 X84.947 Y94.359 E0.01705
G1 X90.532 Y99.945 E0.25010
G1 X89.994 Y99.945 E0.01705
G1 X84.947 Y94.898 E0.22599
G1 X84.947 Y95.436 E0.01705
G1 X89.455 Y99.945 E0.20188
G1 X88.917 Y99.945 E0.01705
G1 X84.947 Y95.975 E0.17776
G1 X84.947 Y96.513 E0.01705
G1 X88.378 Y99.945 E0.15365
G1 X87.840 Y99.945 E0.01705
G1 X84.947 Y97.052 E0.12953
G1 X84.947 Y97.590 E0.01705
G1 X87.301 Y99.945 E0.10542
G1 X86.763 Y99.945 E0.01705
G1 X84.947 Y98.129 E0.08131
G1 X84.947 Y98.667 E0.01705
G1 X86.224 Y99.945 E0.05719
G1 X86.053 Y99.945 E0.00542
G1 X86.053 Y100.312 E0.01163
G1 X84.888 Y99.147 E0.05217
G1 X84.349 Y99.147 E0.01705
G1 X86.053 Y100.851 E0.07628
G1 X86.053 Y101.389 E0.01705
G1 X83.811 Y99.147 E0.10040
G1 X83.272 Y99.147 E0.01705
G1 X86.053 Y101.928 E0.12451
G1 X86.053 Y102.466 E0.01705
G1 X82.734 Y99.147 E0.14863
G1 X82.195 Y99.147 E0.01705
G1 X85.901 Y102.853 E0.16596
G1 X85.363 Y102.853 E0.01705
G1 X81.657 Y99.147 E0.16596
G1 X81.135 Y99.147 E0.01651
G1 X81.135 Y99.164 E0.00054
G1 X84.824 Y102.853 E0.16519
G1 X84.286 Y102.853 E0.01705
G1 X81.084 Y99.652 E0.14336
G1 X80.947 Y99.652 E0.00435
G1 X80.947 Y100.053 E0.01270
G1 X83.747 Y102.853 E0.12540
G1 X83.209 Y102.853 E0.01705
G1 X80.947 Y100.591 E0.10129
G1 X80.947 Y101.130 E0.01705
G1 X82.670 Y102.853 E0.07717
G1 X82.132 Y102.853 E0.01705
G1 X80.947 Y101.668 E0.05306
G1 X80.947 Y102.207 E0.01705
G1 X81.593 Y102.853 E0.02894
G1 X81.055 Y102.853 E0.01705
G1 X80.777 Y102.576 E0.01243
M204 S1250
G1 E-2.24000 F4200.000
;WIPE_START
G1 F7200.000
G1 X81.055 Y102.853 E-0.21749
G1 X81.593 Y102.853 E-0.29843
G1 X81.088 Y102.348 E-0.39608
;WIPE_END
G1 E-0.04800 F4200.000
G1 Z0.400 F9000.000
G1 X84.549 Y93.423
G1 Z0.200
G1 E3.20000 F2400.000
M204 S800
G1 F1200.000
G1 X77.273 Y86.147 E0.32580
G1 X76.947 Y86.147 E0.01033
G1 X76.947 Y86.359 E0.00672
G1 X83.841 Y93.253 E0.30869
G1 X83.302 Y93.253 E0.01705
G1 X76.947 Y86.898 E0.28458
G1 X76.947 Y87.436 E0.01705
G1 X82.764 Y93.253 E0.26046
G1 X82.225 Y93.253 E0.01705
G1 X76.947 Y87.975 E0.23635
M73 P3 R50
G1 X76.947 Y88.513 E0.01705
G1 X81.687 Y93.253 E0.21224
G1 X81.148 Y93.253 E0.01705
G1 X76.947 Y89.052 E0.18812
G1 X76.947 Y89.525 E0.01499
G1 X76.882 Y89.525 E0.00207
G1 X80.610 Y93.253 E0.16693
G1 X80.071 Y93.253 E0.01705
G1 X76.343 Y89.525 E0.16693
G1 X75.805 Y89.525 E0.01705
G1 X79.533 Y93.253 E0.16693
G1 X78.994 Y93.253 E0.01705
G1 X75.266 Y89.525 E0.16693
G1 X74.728 Y89.525 E0.01705
G1 X78.456 Y93.253 E0.16693
G1 X78.053 Y93.253 E0.01274
G1 X78.053 Y93.389 E0.00431
G1 X74.189 Y89.525 E0.17302
